!!!OTL: 709b. Beim Herzlieb.
!!!ODT: 1880
!!!ARE: Europa, Mitteleuropa, Deutschland, Hessen, Lahn - Kreis
!!!SCT: E0709A
!!!TXL: @@DE
!!!YEM: Copyright 1995, estate of Helmut Schaffrath.
**kern	**text
*ICvox	*
*M4/4	*
*met(c)	*
*k[f#]	*
*G:	*
!LO:TX:a:t=Etwas langsam.	!
!LO:TX:a:t=Aus dem Lahnkreis, 1880.	!
{4d	Der
=1	=1
4.g	Him-
8a	-mel
4b	iſt
4cc	ſo
=2	=2
(4.dd	trü-
8ee)	.
4dd}	-be,
{4g	ſcheint
=3	=3
4.ee	we-
8ee	-der
4dd	Mond
4cc	noch
=4	=4
2b	Stern
4r}	.
{8gL	das
8bJ	.
=5	=5
4.dd	Mäd-
8b	-chen,
8ddL	das
8ee	.
8ddJ	.
8cc	ich
=6	=6
(4b	lie-
4ee)	.
4dd}	-be,
{8ddL	das
8ccJ	.
=7	=7
4b	iſt
4b	ſo-
4a	-weit
8ddL	ent-
8ccJ	.
=8	=8
2b	-fernt.
4r}	.
==	==
!!!AGN: Liebes - Lied, Leid, Klage
!!!ONB: ESAC (Essen Associative Code) Database: ERK2
!!!AMT: simple quadruple
!!!AIN: vox
!!!EED: Helmut Schaffrath
!!!EEV: 1.0
!!!GTL: Liebeslieder [Neuere (aus dem 18. bis 19. Jahrh.) - Liebesleid] 678-740
!!!URL-scan: https://rosdok.uni-rostock.de/mcrviewer/recordIdentifier/rosdok_ppn745177662/iview2/phys_0516.iview2?x=193.8995864193107&y=1488.5338485934772&scale=0.7029437510502773&rotation=0&layout=singlePageLayout
!!!ENC: Anna Maria Matuszewska
!!!EEV: 2024/12/16
*-	*-
